packages/foundations/assets/icons/functional/images/audio & video/skip_backward_filled.svg

<svg xmlns="http://www.w3.org/2000/svg" width="32" height="32" fill="none"><path fill="#1A1C1F" fill-rule="evenodd" d="M22.679 7.044c-.155.027-.37.086-.478.131-.267.112-10.382 7.198-10.644 7.457a2.4 2.4 0 0 0-.375.56c-.147.311-.168.411-.168.808 0 .399.021.497.171.815.108.229.266.45.426.6.427.397 10.299 7.282 10.656 7.432.429.18 1.034.185 1.477.013.357-.14.777-.498.971-.829.31-.53.298-.211.297-8.029-.001-4.54-.021-7.259-.054-7.404a1.94 1.94 0 0 0-1.081-1.367c-.427-.206-.773-.26-1.198-.187M7.6 8.101a.98.98 0 0 0-.531.551c-.073.175-.082 1.016-.082 7.362v7.163l.12.235c.066.129.212.309.325.398.183.146.243.163.568.163s.385-.017.568-.163c.113-.089.259-.269.325-.398l.12-.235-.001-7.175c-.001-6.862-.005-7.185-.099-7.389-.242-.522-.81-.744-1.313-.512"/></svg>

<svg width="32" height="32" viewBox="0 0 32 32" fill="none" xmlns="http://www.w3.org/2000/svg"><path d="M22.679 7.044 C 22.524 7.071,22.309 7.130,22.201 7.175 C 21.934 7.287,11.819 14.373,11.557 14.632 C 11.443 14.745,11.274 14.997,11.182 15.192 C 11.035 15.503,11.014 15.603,11.014 16.000 C 11.014 16.399,11.035 16.497,11.185 16.815 C 11.293 17.044,11.451 17.265,11.611 17.415 C 12.038 17.812,21.910 24.697,22.267 24.847 C 22.696 25.027,23.301 25.032,23.744 24.860 C 24.101 24.720,24.521 24.362,24.715 24.031 C 25.025 23.501,25.013 23.820,25.012 16.002 C 25.011 11.462,24.991 8.743,24.958 8.598 C 24.814 7.972,24.443 7.504,23.877 7.231 C 23.450 7.025,23.104 6.971,22.679 7.044 M7.600 8.101 C 7.342 8.220,7.179 8.389,7.069 8.652 C 6.996 8.827,6.987 9.668,6.987 16.014 L 6.987 23.177 7.107 23.412 C 7.173 23.541,7.319 23.721,7.432 23.810 C 7.615 23.956,7.675 23.973,8.000 23.973 C 8.325 23.973,8.385 23.956,8.568 23.810 C 8.681 23.721,8.827 23.541,8.893 23.412 L 9.013 23.177 9.012 16.002 C 9.011 9.140,9.007 8.817,8.913 8.613 C 8.671 8.091,8.103 7.869,7.600 8.101 " fill="#1A1C1F" stroke="none" fill-rule="evenodd"></path></svg>
